X: 6027
T: Cap And Bells
R: reel
M: 4/4
K: Dmajor
fe|:dF (3FFF fdec|dfec dAFA|Be (3eee BeGe|gefd ecAc|
dF (3FFF fdec|dcAF GFGE|DAde fdeg|fdec Add2:|
|:e|faa^g afdf|bfaf gfed|Be (3eee gfed|Bebg afge|
fa (3aaa fdde|fdec dcAF|GFGB efge|fdec Add2:|

